X:3
T:Vals 
S:efter Anders Peter Roos
O:Hägerstad, Östergötland 
R:Vals
B:Ög 17
B:http://www.smus.se/earkiv/fmk/browselarge.php?lang=sw&katalogid=%C3%96g+17&bildnr=00005
M:3/8
L:1/8
K:F
FAc | fed | dcc | cAF | CEG | Bdc | cBG | F2 z ::
gec | afc | bgc | afc | fed | dcA | cBG | F2 z :|]

